src/assets/images/core4.svg

<svg width="57" height="57" viewBox="0 0 57 57" fill="none" xmlns="http://www.w3.org/2000/svg">
<circle cx="28.5" cy="28.5" r="28.5" fill="#FFC46A"/>
<path d="M21.1254 17L19.9186 18.2051L21.7143 20L22.9194 18.7949L21.1254 17ZM36.8754 17L35.0797 18.7949L36.2857 20L38.0806 18.206L36.8754 17ZM29 17.5349C28.7171 17.5383 28.4309 17.5546 28.1429 17.5897C28.1343 17.5897 28.1257 17.588 28.1171 17.5897C24.6406 17.9883 21.8737 20.7971 21.3929 24.2583C21.0089 27.044 22.1574 29.57 24.0714 31.1969C24.8544 31.865 25.3839 32.7819 25.5714 33.794V38.9369H27.5257C27.824 39.4486 28.3683 39.794 29 39.794C29.6317 39.794 30.176 39.4486 30.4743 38.9369H32.4286V35.5083H32.5091V34.49C32.5091 33.2334 33.1623 31.9666 34.2234 30.9817C35.6429 29.5606 36.7143 27.542 36.7143 25.2234C36.7143 20.9891 33.2291 17.4954 29 17.5349ZM29 19.2491C32.3129 19.2029 35 21.9149 35 25.2234C35 27.0183 34.1686 28.5989 33.0174 29.7491L33.0449 29.7766C31.9009 30.8315 31.1612 32.2527 30.9534 33.7949H27.2043C27.0157 32.3257 26.3857 30.9037 25.1951 29.8837C23.6806 28.598 22.778 26.6609 23.0797 24.4734C23.4543 21.7734 25.6451 19.6023 28.3297 19.3049C28.5514 19.274 28.7746 19.2556 28.9983 19.25L29 19.2491ZM17 25.2234V26.9377H19.5714V25.2234H17ZM38.4286 25.2234V26.9377H41V25.2234H38.4286ZM21.7143 32.1611L19.9194 33.9551L21.1254 35.1611L22.9186 33.3663L21.7143 32.1611ZM36.2857 32.1611L35.0806 33.3663L36.8746 35.1611L38.0806 33.9551L36.2857 32.1611ZM27.2857 35.5091H30.7143V37.2234H27.2857V35.5091Z" fill="white"/>
</svg>

<svg xmlns="http://www.w3.org/2000/svg" width="57" height="57" fill="none"><circle cx="28.5" cy="28.5" r="28.5" fill="#FFC46A"/><path fill="#fff" d="m21.125 17-1.206 1.205L21.714 20l1.205-1.205zm15.75 0-1.795 1.795L36.286 20l1.795-1.794zM29 17.535q-.426.003-.857.055-.013-.002-.026 0c-3.476.398-6.243 3.207-6.724 6.668-.384 2.786.764 5.312 2.678 6.939a4.5 4.5 0 0 1 1.5 2.597v5.143h1.955c.298.512.842.857 1.474.857s1.176-.345 1.474-.857h1.955v-3.429h.08V34.49c0-1.257.653-2.523 1.714-3.508 1.42-1.421 2.491-3.44 2.491-5.759 0-4.234-3.485-7.728-7.714-7.688m0 1.714c3.313-.046 6 2.666 6 5.974 0 1.795-.831 3.376-1.983 4.526l.028.028a6.68 6.68 0 0 0-2.092 4.018h-3.749c-.188-1.47-.818-2.891-2.009-3.911-1.514-1.286-2.417-3.223-2.115-5.41.374-2.7 2.565-4.872 5.25-5.17q.332-.045.668-.054zm-12 5.974v1.715h2.571v-1.715zm21.429 0v1.715H41v-1.715zm-16.715 6.938-1.795 1.794 1.206 1.206 1.794-1.795zm14.572 0-1.205 1.205 1.794 1.795 1.206-1.206zm-9 3.348h3.428v1.714h-3.428z"/></svg>
